X: 1
T: Over the Hills
M: 4/4
L: 4/8
P:A
K: G
D2|GA BA GA BA|G2 E2 E3 D|GA BA GA BA|
c2 A2 A3 D|GA BA GA BA|G2 E2 c3 E|
E2 DC D2 B2| c2 A2 A2|]
P:B
z d|d3 c B2 A2|G2 E2 E4|d3 c B2 AB|
c2 A2 A4|d3 c B2 A2|G2 E2 c2 z E|
E2 DC D2 B2|c2 A2 A4|]
